assets/images/system/icon/services/medical-shield.svg

<svg width="70" height="70" viewBox="0 0 70 70" fill="none" xmlns="http://www.w3.org/2000/svg">
<path fill-rule="evenodd" clip-rule="evenodd" d="M35 0C25.1679 8.35917 19.005 8.75 8.75 8.75V42.3937C8.75 55.8192 18.0921 59.3221 35 70C51.9079 59.3221 61.25 55.8192 61.25 42.3937V8.75C50.995 8.75 44.8321 8.35917 35 0ZM35 7.42C42.2917 12.6846 48.2854 14.105 55.4167 14.4667V42.3937C55.4167 51.2663 50.4992 53.5558 35 63.1254C19.5154 53.5646 14.5833 51.2692 14.5833 42.3937V14.4667C21.7204 14.105 27.7083 12.6846 35 7.42ZM35 18.9583C43.855 18.9583 51.0417 26.145 51.0417 35C51.0417 43.855 43.855 51.0417 35 51.0417C26.145 51.0417 18.9583 43.855 18.9583 35C18.9583 26.145 26.145 18.9583 35 18.9583ZM37.9167 26.25H32.0833V32.0833H26.25V37.9167H32.0833V43.75H37.9167V37.9167H43.75V32.0833H37.9167V26.25Z" fill="#017113"/>
</svg>

<svg xmlns="http://www.w3.org/2000/svg" width="70" height="70" fill="none" xmlns:v="https://vecta.io/nano"><path fill-rule="evenodd" d="M35 0C25.168 8.359 19.005 8.75 8.75 8.75v33.644C8.75 55.819 18.092 59.322 35 70c16.908-10.678 26.25-14.181 26.25-27.606V8.75C50.995 8.75 44.832 8.359 35 0zm0 7.42c7.292 5.265 13.285 6.685 20.417 7.047v27.927c0 8.873-4.917 11.162-20.417 20.732-15.485-9.561-20.417-11.856-20.417-20.732V14.467C21.72 14.105 27.708 12.685 35 7.42zm0 11.538A16.05 16.05 0 0 1 51.042 35 16.05 16.05 0 0 1 35 51.042 16.05 16.05 0 0 1 18.958 35 16.05 16.05 0 0 1 35 18.958zm2.917 7.292h-5.833v5.833H26.25v5.833h5.833v5.833h5.833v-5.833h5.833v-5.833h-5.833V26.25z" fill="#017113"/></svg>
